images/freeCellPlaceholder.svg

<svg xmlns="http://www.w3.org/2000/svg" width="179" height="250" viewBox="0 0 179 250">
    <path fill-opacity=".204" d="M166.138 0C173.241 0 179 5.643 179 12.605v224.79c0 6.962-5.759 12.605-12.862 12.605H12.862C5.759 250 0 244.357 0 237.395V12.605C0 5.643 5.759 0 12.862 0zm0 6H12.862C9.046 6 6 8.985 6 12.605v224.79c0 3.62 3.046 6.605 6.862 6.605h153.276c3.816 0 6.862-2.985 6.862-6.605V12.605C173 8.985 169.954 6 166.138 6"/>
    <path fill-opacity=".197" d="M19.052 180.716q1.165-1.664 4.012-1.044l11.905-17.492q1.344-1.92 3.87-.57l.09-.128.525.558 1.587 1.112q2.969 2.079.567 5.509l-10.362 15.29-.822 1.446 6.758 4.732 12.045-17.202q2.151-3.072 4.48-1.441l.09-.128q4.428 3.101 2.618 5.687l-11.167 16.711-.732 1.318 3.814 2.671 7.769 5.63 1.574.912q1.357.95.264 3.274l-.18.256q-1.29 1.843-3.671.558l-12.615-8.681q-1.81 2.586-4.268.865-1.126-.789-2.976-5.937l-4.877-3.224-1.357-.95q-.716-.502-2.429.855-1.429.297-2.325-.331l-.256-.179q-.768-.538-1.832-3.648-3.098-2.169-2.439-5.943zM56.442 126.936q5.001-7.142 14.167-8.736 3.594-.23 6.563 1.85 7.04 4.929 2.484 17.647l-.732 1.318-7.068 8.785.128.09 25.557-13.235q1.096-.148 3.625 1.089 2.529 2.381 1.095 4.429-.376.537-37.69 20.647l-.269.384.128.09 17.164 11.827q1.357.95.245 3.3-1.326 1.894-3.379 1.449l-3.615-2.684-7.5-5.252-8.673-5.92q-2.437 1.956-5.407-.123l-1.19-.643q-2.048-1.434-.647-4.306l-2.586-1.811q-1.692.837-3.876.033-1.889-.026-2.938-.761-1.639-1.147-.038-4.413-.717-.502.023-2.921l2.251-1.362q8.361-15.319 12.178-20.771m-5.041 25.234 3.814 2.671q.384.269 10.196-10.639 4.916-5.713 7.228-9.015 4.069-5.811 1.276-9.941l-.837-.929q-4.633-.956-8.451 4.497-4.894 6.988-13.226 23.356M73.022 102.494q.341-.486 2.302-1.707l8.084-11.545 7.961-11.097q1.147-1.638 5.658-.234l.934.463q1.779 2.199-.103 4.887l-15.379 22.727 3.417 2.202 3.917 2.742 13.336-19.045q2.025-2.893 5.038-1.965l1.646.809q2.688 1.882.465 5.056l-13.765 19.66 10.085 7.062.072-.103 16.045-22.641q1.093-1.562 5.816.029 1.895 1.326.486 4.536l-15.192 22.514q1.774 2.425.519 4.217-1.398 1.996-5.228.383-4.6-.131-5.138-.508-1.638-1.147-.608-4.088l-.935-.464-9.599-6.721q-3.948.898-5.638-.285-1.766-1.237-.596-3.889l-7.5-5.252q-3.42.581-6.162-.843-1.971-1.38-.557-4.434.279-1.979.619-2.466M98.475 66.145q.34-.487 2.302-1.708l8.084-11.545 7.96-11.097q1.148-1.638 5.658-.234l.935.463q1.779 2.2-.103 4.887l-15.38 22.727 3.418 2.202 3.916 2.742 13.336-19.045q2.026-2.893 5.039-1.965l1.646.809q2.688 1.882.465 5.056l-13.766 19.66 10.086 7.062.072-.102 16.044-22.642q1.094-1.562 5.817.029 1.894 1.326.486 4.536l-15.193 22.514q1.774 2.425.52 4.217-1.399 1.996-5.228.383-4.601-.131-5.138-.508-1.639-1.147-.609-4.088l-.934-.464-9.6-6.721q-3.948.898-5.637-.285-1.766-1.237-.596-3.889l-7.5-5.252q-3.421.581-6.162-.843-1.972-1.38-.558-4.434.279-1.979.62-2.465"/>
</svg>

<?xml version="1.0" encoding="UTF-8"?>
<!DOCTYPE svg PUBLIC "-//W3C//DTD SVG 1.1//EN" "http://www.w3.org/Graphics/SVG/1.1/DTD/svg11.dtd">
<svg version="1.1" xmlns="http://www.w3.org/2000/svg" xmlns:xlink="http://www.w3.org/1999/xlink" x="0" y="0" width="179" height="250" viewBox="0, 0, 179, 250">
  <g id="Free_2_(dark)" transform="translate(-0, -0)">
    <path d="M166.138,0 C173.241,0 179,5.643 179,12.605 L179,237.395 C179,244.357 173.241,250 166.138,250 L12.862,250 C5.759,250 0,244.357 0,237.395 L0,12.605 C0,5.643 5.759,0 12.862,0 L166.138,0 z M166.138,6 L12.862,6 C9.046,6 6,8.985 6,12.605 L6,237.395 C6,241.015 9.046,244 12.862,244 L166.138,244 C169.954,244 173,241.015 173,237.395 L173,12.605 C173,8.985 169.954,6 166.138,6 z" fill="#000000" fill-opacity="0.204"/>
    <path d="M19.052,180.716 Q20.217,179.052 23.064,179.672 L34.969,162.18 Q36.313,160.26 38.839,161.61 L38.929,161.482 L39.454,162.04 L41.041,163.152 Q44.01,165.231 41.608,168.661 L31.246,183.951 L30.424,185.397 L37.182,190.129 L49.227,172.927 Q51.378,169.855 53.707,171.486 L53.797,171.358 Q58.225,174.459 56.415,177.045 L45.248,193.756 L44.516,195.074 L48.33,197.745 L56.099,203.375 L57.673,204.287 Q59.03,205.237 57.937,207.561 L57.757,207.817 Q56.467,209.66 54.086,208.375 L41.471,199.694 Q39.661,202.28 37.203,200.559 Q36.077,199.77 34.227,194.622 L29.35,191.398 L27.993,190.448 Q27.277,189.946 25.564,191.303 Q24.135,191.6 23.239,190.972 L22.983,190.793 Q22.215,190.255 21.151,187.145 Q18.053,184.976 18.712,181.202 z" fill="#000000" fill-opacity="0.197"/>
    <path d="M56.442,126.936 Q61.443,119.794 70.609,118.2 Q74.203,117.97 77.172,120.05 Q84.212,124.979 79.656,137.697 L78.924,139.015 L71.856,147.8 L71.984,147.89 L97.541,134.655 Q98.637,134.507 101.166,135.744 Q103.695,138.125 102.261,140.173 Q101.885,140.71 64.571,160.82 L64.302,161.204 L64.43,161.294 L81.594,173.121 Q82.951,174.071 81.839,176.421 Q80.513,178.315 78.46,177.87 L74.845,175.186 L67.345,169.934 L58.672,164.014 Q56.235,165.97 53.265,163.891 L52.075,163.248 Q50.027,161.814 51.428,158.942 L48.842,157.131 Q47.15,157.968 44.966,157.164 Q43.077,157.138 42.028,156.403 Q40.389,155.256 41.99,151.99 Q41.273,151.488 42.013,149.069 L44.264,147.707 Q52.625,132.388 56.442,126.936 z M51.401,152.17 L55.215,154.841 Q55.599,155.11 65.411,144.202 Q70.327,138.489 72.639,135.187 Q76.708,129.376 73.915,125.246 L73.078,124.317 Q68.445,123.361 64.627,128.814 Q59.733,135.802 51.401,152.17 z" fill="#000000" fill-opacity="0.197"/>
    <path d="M73.022,102.494 Q73.363,102.008 75.324,100.787 L83.408,89.242 L91.369,78.145 Q92.516,76.507 97.027,77.911 L97.961,78.374 Q99.74,80.573 97.858,83.261 L82.479,105.988 L85.896,108.19 L89.813,110.932 L103.149,91.887 Q105.174,88.994 108.187,89.922 L109.833,90.731 Q112.521,92.613 110.298,95.787 L96.533,115.447 L106.618,122.509 L106.69,122.406 L122.735,99.765 Q123.828,98.203 128.551,99.794 Q130.446,101.12 129.037,104.33 L113.845,126.844 Q115.619,129.269 114.364,131.061 Q112.966,133.057 109.136,131.444 Q104.536,131.313 103.998,130.936 Q102.36,129.789 103.39,126.848 L102.455,126.384 L92.856,119.663 Q88.908,120.561 87.218,119.378 Q85.452,118.141 86.622,115.489 L79.122,110.237 Q75.702,110.818 72.96,109.394 Q70.989,108.014 72.403,104.96 Q72.682,102.981 73.022,102.494 z" fill="#000000" fill-opacity="0.197"/>
    <path d="M98.475,66.145 Q98.815,65.658 100.777,64.437 L108.861,52.892 L116.821,41.795 Q117.969,40.157 122.479,41.561 L123.414,42.024 Q125.193,44.224 123.311,46.911 L107.931,69.638 L111.349,71.84 L115.265,74.582 L128.601,55.537 Q130.627,52.644 133.64,53.572 L135.286,54.381 Q137.974,56.263 135.751,59.437 L121.985,79.097 L132.071,86.159 L132.143,86.057 L148.187,63.415 Q149.281,61.853 154.004,63.444 Q155.898,64.77 154.49,67.98 L139.297,90.494 Q141.071,92.919 139.817,94.711 Q138.418,96.707 134.589,95.094 Q129.988,94.963 129.451,94.586 Q127.812,93.439 128.842,90.498 L127.908,90.034 L118.308,83.313 Q114.36,84.211 112.671,83.028 Q110.905,81.791 112.075,79.139 L104.575,73.887 Q101.154,74.468 98.413,73.044 Q96.441,71.664 97.855,68.61 Q98.134,66.631 98.475,66.145 z" fill="#000000" fill-opacity="0.197"/>
  </g>
</svg>
